components/AnnouncementBar/logos/color-carta.svg

<svg width="158" height="118" viewBox="0 0 158 118" fill="none" xmlns="http://www.w3.org/2000/svg">
<path d="M113.28 41.53H111.86H110.86H110.74C107.4 41.53 103.45 41.71 98.82 41.53H98.08C97.08 41.53 94.96 41.34 94.93 41.34L93.45 41.21C91.45 41.04 89.39 40.78 87.2 40.41L85.58 40.13L84.7 40C84.14 39.89 81.78 39.37 81.25 39.24C80.72 39.11 80.33 39.02 79.86 38.9C79.02 38.69 78.17 38.45 77.3 38.2L76.1 37.84C75.29 37.61 74.47 37.34 73.63 37.06L72.13 36.55C71.4 36.3 70.67 36.03 69.92 35.75L86.41 23.75L113.28 41.53Z" fill="#C6EBF4"/>
<path d="M47.11 92.42C44.4433 92.42 42.5033 91.62 41.29 90.02C40.0766 88.42 39.4566 85.8967 39.43 82.45V77.45C39.43 73.93 40.05 71.38 41.29 69.8C42.53 68.22 44.51 67.43 47.23 67.43C48.9449 67.3345 50.6431 67.8092 52.06 68.78C52.6093 69.1479 53.0688 69.6346 53.4046 70.2041C53.7404 70.7736 53.9439 71.4113 54 72.07C54.0113 72.1256 54.0413 72.1758 54.0849 72.2121C54.1285 72.2485 54.1832 72.2689 54.24 72.27H58.4C58.4663 72.27 58.5299 72.2437 58.5768 72.1968C58.6236 72.1499 58.65 72.0863 58.65 72.02C58.6332 70.0218 57.8491 68.1064 56.46 66.67C54.5 64.47 51.34 63.37 46.98 63.37C42.94 63.37 39.88 64.55 37.8 66.91C35.72 69.27 34.6833 72.79 34.69 77.47V83.41C34.69 87.7433 35.73 91.0067 37.81 93.2C39.89 95.3933 42.9533 96.4933 47 96.5C51.88 96.5 55.2433 95.12 57.09 92.36C57.6414 91.5771 58.076 90.7181 58.38 89.81C58.6158 88.892 58.7334 87.9477 58.73 87C58.73 86.9354 58.7051 86.8733 58.6603 86.8267C58.6156 86.7801 58.5545 86.7526 58.49 86.75H54.25C54.1932 86.7511 54.1385 86.7715 54.0949 86.8079C54.0513 86.8442 54.0213 86.8944 54.01 86.95C53.36 90.29 51.12 92.42 47.11 92.42Z" fill="#25314C"/>
<path d="M129.89 67.64C129.954 67.64 130.015 67.6147 130.06 67.5697C130.105 67.5247 130.13 67.4637 130.13 67.4V63.61C130.131 63.5781 130.126 63.5463 130.115 63.5165C130.103 63.4867 130.085 63.4597 130.063 63.4371C130.04 63.4146 130.013 63.3969 129.983 63.3854C129.954 63.3738 129.922 63.3686 129.89 63.37H122.89V55.62C122.89 55.5564 122.865 55.4953 122.82 55.4503C122.775 55.4053 122.714 55.38 122.65 55.38L118.39 56.68C118.326 56.68 118.265 56.7053 118.22 56.7503C118.175 56.7953 118.15 56.8564 118.15 56.92V63.37H113.5C113.436 63.37 113.375 63.3953 113.33 63.4403C113.285 63.4853 113.26 63.5464 113.26 63.61V67.4C113.26 67.4637 113.285 67.5247 113.33 67.5697C113.375 67.6147 113.436 67.64 113.5 67.64H118.15V87.64C118.15 90.4 118.77 92.42 120.01 93.7C121.25 94.98 123.247 95.6333 126 95.66H129.9C129.964 95.66 130.025 95.6347 130.07 95.5897C130.115 95.5447 130.14 95.4837 130.14 95.42V91.7C130.14 91.6363 130.115 91.5753 130.07 91.5303C130.025 91.4853 129.964 91.46 129.9 91.46H126.42C125.928 91.5142 125.43 91.4519 124.966 91.2782C124.502 91.1045 124.086 90.8243 123.75 90.46C123.118 89.4043 122.834 88.1761 122.94 86.95V67.64H129.89Z" fill="#25314C"/>
<path d="M87.21 72C87.188 71.5897 87.118 71.1835 87 70.79C86.585 69.3678 85.88 68.0469 84.93 66.91C82.85 64.55 79.79 63.37 75.75 63.37C71.39 63.37 68.2266 64.47 66.26 66.67C64.9295 68.1174 64.2125 70.0246 64.26 71.99C64.26 72.0563 64.2863 72.1199 64.3332 72.1668C64.3801 72.2137 64.4437 72.24 64.51 72.24H68.67C68.7282 72.2384 68.784 72.2166 68.8278 72.1782C68.8716 72.1399 68.9007 72.0875 68.91 72.03C68.9376 71.3803 69.1143 70.7457 69.4265 70.1752C69.7386 69.6047 70.1777 69.1136 70.71 68.74C72.132 67.7712 73.832 67.2968 75.55 67.39C78.27 67.39 80.25 68.18 81.49 69.76C82.061 70.5116 82.408 71.4096 82.49 72.35C82.49 72.68 82.49 73.02 82.49 73.35V76.89C81.25 76.73 80.01 76.61 78.77 76.53C77.53 76.45 76.51 76.41 75.71 76.41C71.343 76.41 68.14 77.23 66.1 78.87C64.06 80.51 63.04 83.1133 63.04 86.68C63.04 90.0133 64.01 92.4433 65.95 93.97C67.66 95.29 71.25 95.97 74.87 96.17C75.824 96.2116 76.781 96.1782 77.73 96.07C80.781 95.8054 83.787 95.1639 86.68 94.16C86.834 94.1141 86.971 94.0209 87.069 93.8935C87.168 93.7661 87.224 93.611 87.23 93.45V73.27C87.26 72.81 87.24 72.38 87.21 72ZM70.62 91.33C70.1016 91.1571 69.6276 90.8722 69.2318 90.4954C68.8361 90.1186 68.5281 89.6593 68.33 89.15C68.0453 88.3515 67.9097 87.5075 67.93 86.66C67.93 84.4133 68.52 82.81 69.7 81.85C70.88 80.89 73.013 80.41 76.1 80.41C76.77 80.41 80.76 80.75 82.25 80.92C82.324 80.9275 82.393 80.9623 82.443 81.0178C82.493 81.0733 82.52 81.1454 82.52 81.22V90.62C82.52 90.6855 82.5 90.7494 82.462 90.803C82.425 90.8567 82.371 90.8975 82.31 90.92C78.564 92.3356 74.456 92.4796 70.62 91.33Z" fill="#25314C"/>
<path d="M158.13 72C158.099 71.6024 158.022 71.2098 157.9 70.83C157.485 69.4078 156.78 68.0868 155.83 66.95C153.75 64.59 150.69 63.41 146.65 63.41C142.277 63.41 139.113 64.51 137.16 66.71C135.83 68.1574 135.113 70.0645 135.16 72.03C135.16 72.0963 135.186 72.1599 135.233 72.2067C135.28 72.2536 135.344 72.28 135.41 72.28H139.57C139.628 72.2784 139.684 72.2565 139.728 72.2182C139.772 72.1799 139.801 72.1274 139.81 72.07C139.838 71.4203 140.014 70.7856 140.327 70.2151C140.639 69.6447 141.078 69.1536 141.61 68.78C143.031 67.8098 144.732 67.3353 146.45 67.43C149.17 67.43 151.15 68.22 152.39 69.8C152.966 70.5491 153.313 71.4484 153.39 72.39C153.39 72.72 153.44 73.06 153.44 73.39V76.93C152.2 76.77 150.96 76.65 149.72 76.57C148.48 76.49 147.45 76.45 146.65 76.45C142.29 76.45 139.09 77.27 137.05 78.91C135.01 80.55 133.993 83.1533 134 86.72C134 90.0533 134.97 92.4833 136.91 94.01C138.62 95.33 142.21 96.01 145.83 96.21C146.785 96.2516 147.741 96.2182 148.69 96.11C151.741 95.8454 154.747 95.2039 157.64 94.2C157.794 94.154 157.931 94.0608 158.029 93.9335C158.128 93.8061 158.184 93.651 158.19 93.49V73.27C158.18 72.81 158.16 72.38 158.13 72ZM141.54 91.33C141.022 91.1571 140.548 90.8721 140.152 90.4954C139.756 90.1186 139.448 89.6592 139.25 89.15C138.965 88.3515 138.83 87.5075 138.85 86.66C138.85 84.4133 139.44 82.81 140.62 81.85C141.8 80.89 143.933 80.41 147.02 80.41C147.69 80.41 151.68 80.75 153.17 80.92C153.243 80.9295 153.311 80.965 153.361 81.02C153.41 81.075 153.438 81.146 153.44 81.22V90.62C153.437 90.6848 153.416 90.7475 153.379 90.8007C153.342 90.8538 153.29 90.8952 153.23 90.92C149.484 92.3355 145.376 92.4796 141.54 91.33Z" fill="#25314C"/>
<path d="M109.22 68C109.279 67.9974 109.335 67.972 109.376 67.9292C109.417 67.8863 109.44 67.8293 109.44 67.77V67.59V63.6C109.44 62.8 103.95 64.03 103.44 64.19C102.287 64.4503 101.204 64.9569 100.265 65.6749C99.326 66.3929 98.553 67.3055 98 68.35V64.56C98 64.5258 97.993 64.492 97.98 64.4605C97.967 64.4289 97.948 64.4003 97.924 64.3761C97.9 64.352 97.871 64.3328 97.839 64.3198C97.808 64.3067 97.774 64.3 97.74 64.3H93.61C93.541 64.3 93.475 64.3274 93.426 64.3761C93.377 64.4249 93.35 64.491 93.35 64.56V95.42C93.35 95.4899 93.377 95.5571 93.425 95.6075C93.474 95.6578 93.54 95.6874 93.61 95.69H97.87C97.94 95.6874 98.006 95.6578 98.054 95.6075C98.103 95.5571 98.13 95.4899 98.13 95.42V78.13C98.085 76.0984 98.495 74.0825 99.33 72.23C99.855 71.0573 100.692 70.0516 101.75 69.3231C102.809 68.5946 104.047 68.1715 105.33 68.1C106.255 67.9836 107.187 67.9268 108.12 67.93L109.22 68Z" fill="#25314C"/>
<path d="M110.91 43.42C47.11 63 0 43.42 0 43.42L35.1 18C48.42 27.77 60 33.83 69.92 37.57C70.67 37.85 71.4 38.12 72.13 38.37L73.63 38.88C74.47 39.16 75.29 39.43 76.1 39.66L77.3 40.02C78.17 40.27 79.02 40.51 79.86 40.72C80.33 40.84 80.79 40.96 81.25 41.06C81.71 41.16 85.32 41.94 85.63 42L87.25 42.28C89.44 42.65 91.52 42.91 93.5 43.08L94.98 43.21C94.98 43.21 97.13 43.36 98.13 43.4H98.87C103.5 43.57 107.45 43.4 110.79 43.4L110.91 43.42Z" fill="#1B98ED"/>
</svg>

<svg xmlns="http://www.w3.org/2000/svg" width="158" height="118" viewBox="0 0 158 118">
  <path fill="#C6EBF4" d="M113.28 41.53h-2.54c-3.34 0-7.29.18-11.92 0h-.74c-1 0-3.12-.19-3.15-.19l-1.48-.13c-2-.17-4.06-.43-6.25-.8l-1.62-.28-.88-.13c-.56-.11-2.92-.63-3.45-.76-.53-.13-.92-.22-1.39-.34-.84-.21-1.69-.45-2.56-.7l-1.2-.36c-.81-.23-1.63-.5-2.47-.78l-1.5-.51c-.73-.25-1.46-.52-2.21-.8l16.49-12 26.87 17.78Z"/>
  <path fill="#25314C" d="M47.11 92.42c-2.667 0-4.607-.8-5.82-2.4-1.213-1.6-1.833-4.123-1.86-7.57v-5c0-3.52.62-6.07 1.86-7.65 1.24-1.58 3.22-2.37 5.94-2.37a7.78 7.78 0 0 1 4.83 1.35A4.41 4.41 0 0 1 54 72.07a.25.25 0 0 0 .24.2h4.16a.25.25 0 0 0 .25-.25 7.79 7.79 0 0 0-2.19-5.35c-1.96-2.2-5.12-3.3-9.48-3.3-4.04 0-7.1 1.18-9.18 3.54-2.08 2.36-3.117 5.88-3.11 10.56v5.94c0 4.333 1.04 7.597 3.12 9.79 2.08 2.193 5.143 3.293 9.19 3.3 4.88 0 8.243-1.38 10.09-4.14a9.87 9.87 0 0 0 1.29-2.55c.236-.918.353-1.862.35-2.81a.25.25 0 0 0-.24-.25h-4.24a.25.25 0 0 0-.24.2c-.65 3.34-2.89 5.47-6.9 5.47Zm82.78-24.78a.24.24 0 0 0 .24-.24v-3.79a.248.248 0 0 0-.015-.093.234.234 0 0 0-.225-.147h-7v-7.75a.24.24 0 0 0-.24-.24l-4.26 1.3a.24.24 0 0 0-.24.24v6.45h-4.65a.24.24 0 0 0-.24.24v3.79a.24.24 0 0 0 .24.24h4.65v20c0 2.76.62 4.78 1.86 6.06 1.24 1.28 3.237 1.933 5.99 1.96h3.9a.24.24 0 0 0 .24-.24V91.7a.24.24 0 0 0-.24-.24h-3.48a3.16 3.16 0 0 1-2.67-1 5.853 5.853 0 0 1-.81-3.51V67.64h6.95ZM87.21 72a5.177 5.177 0 0 0-.21-1.21 10.746 10.746 0 0 0-2.07-3.88c-2.08-2.36-5.14-3.54-9.18-3.54-4.36 0-7.523 1.1-9.49 3.3a7.59 7.59 0 0 0-2 5.32.25.25 0 0 0 .25.25h4.16a.25.25 0 0 0 .24-.21 4.238 4.238 0 0 1 1.8-3.29 7.84 7.84 0 0 1 4.84-1.35c2.72 0 4.7.79 5.94 2.37a5 5 0 0 1 1 2.59v4.54c-1.24-.16-2.48-.28-3.72-.36-1.24-.08-2.26-.12-3.06-.12-4.367 0-7.57.82-9.61 2.46-2.04 1.64-3.06 4.243-3.06 7.81 0 3.333.97 5.763 2.91 7.29 1.71 1.32 5.3 2 8.92 2.2.954.042 1.911.008 2.86-.1a37.07 37.07 0 0 0 8.95-1.91.768.768 0 0 0 .55-.71V73.27c.03-.46.01-.89-.02-1.27ZM70.62 91.33a3.72 3.72 0 0 1-2.29-2.18 6.92 6.92 0 0 1-.4-2.49c0-2.247.59-3.85 1.77-4.81 1.18-.96 3.313-1.44 6.4-1.44.67 0 4.66.34 6.15.51a.3.3 0 0 1 .27.3v9.4a.319.319 0 0 1-.21.3 18.25 18.25 0 0 1-11.69.41ZM158.13 72a5.129 5.129 0 0 0-.23-1.17 10.745 10.745 0 0 0-2.07-3.88c-2.08-2.36-5.14-3.54-9.18-3.54-4.373 0-7.537 1.1-9.49 3.3a7.594 7.594 0 0 0-2 5.32.249.249 0 0 0 .25.25h4.16a.252.252 0 0 0 .24-.21 4.234 4.234 0 0 1 1.8-3.29 7.82 7.82 0 0 1 4.84-1.35c2.72 0 4.7.79 5.94 2.37.576.75.923 1.648 1 2.59 0 .33.05.67.05 1v3.54c-1.24-.16-2.48-.28-3.72-.36-1.24-.08-2.27-.12-3.07-.12-4.36 0-7.56.82-9.6 2.46-2.04 1.64-3.057 4.243-3.05 7.81 0 3.333.97 5.763 2.91 7.29 1.71 1.32 5.3 2 8.92 2.2.955.042 1.911.008 2.86-.1a37.07 37.07 0 0 0 8.95-1.91.77.77 0 0 0 .55-.71V73.27c-.01-.46-.03-.89-.06-1.27Zm-16.59 19.33a3.726 3.726 0 0 1-2.29-2.18 6.92 6.92 0 0 1-.4-2.49c0-2.247.59-3.85 1.77-4.81 1.18-.96 3.313-1.44 6.4-1.44.67 0 4.66.34 6.15.51.073.01.141.045.191.1a.314.314 0 0 1 .079.2v9.4a.344.344 0 0 1-.21.3 18.25 18.25 0 0 1-11.69.41ZM109.22 68a.23.23 0 0 0 .22-.23V63.6c0-.8-5.49.43-6 .59A8.2 8.2 0 0 0 98 68.35v-3.79a.261.261 0 0 0-.26-.26h-4.13a.26.26 0 0 0-.26.26v30.86a.27.27 0 0 0 .26.27h4.26a.269.269 0 0 0 .26-.27V78.13a13.624 13.624 0 0 1 1.2-5.9 7.003 7.003 0 0 1 6-4.13 21.75 21.75 0 0 1 2.79-.17l1.1.07Z"/>
  <path fill="#1B98ED" d="M110.91 43.42C47.11 63 0 43.42 0 43.42L35.1 18C48.42 27.77 60 33.83 69.92 37.57c.75.28 1.48.55 2.21.8l1.5.51c.84.28 1.66.55 2.47.78l1.2.36c.87.25 1.72.49 2.56.7.47.12.93.24 1.39.34.46.1 4.07.88 4.38.94l1.62.28c2.19.37 4.27.63 6.25.8l1.48.13s2.15.15 3.15.19h.74c4.63.17 8.58 0 11.92 0l.12.02Z"/>
</svg>
